X:2
T:Bridal March
C:Wagner
M:2/4
L:1/8
K:G
[D2d2][D3/2d3/2][D/d/]|[D2d2][D2d2]|[D4d4]|[D4d4]|
|:"G" (D2 G) z/G/|G3z|"G" (D2 "D" A) z/F/|"G" G3z|"G" (D2 G>c|
"C" c2 B>A|"G" G2 F>G|"D" A3)z|"G" (D2 G) z/G/|G3z|"G" (D2 "D" A) z/F/|G3z|(D2 G>B|d2 B>G)|
(E2 A>B|G3) G|c2 BA|E2 E2|F2 G>A|A3 d|c2 BA|E2 E2|
(E2 F>^G)|^G4|(B2 ^cB|A2 ^G2)|

